svgs/notice_fix.svg

<?xml version="1.0" encoding="UTF-8" standalone="no"?>
<svg
   width="192"
   height="192"
   viewBox="0 0 192 192"
   fill="none"
   version="1.1"
   id="svg4"
   xml:space="preserve"
   xmlns="http://www.w3.org/2000/svg"
   xmlns:svg="http://www.w3.org/2000/svg"><defs
     id="defs4"><linearGradient
       id="swatch5"><stop
         style="stop-color:#ff9900;stop-opacity:1;"
         offset="0"
         id="stop5" /></linearGradient><linearGradient
       id="swatch4"><stop
         style="stop-color:#3b8aff;stop-opacity:1;"
         offset="0"
         id="stop4" /></linearGradient></defs><g
     id="layer2"><g
       style="fill:none"
       id="g1"><path
         stroke="#000000"
         stroke-linecap="round"
         stroke-linejoin="round"
         stroke-width="12"
         d="m 105.83249,155.45949 c 10e-4,1.91002 -0.37148,3.80175 -1.0975,5.56798 -0.72316,1.76411 -1.78671,3.36805 -3.12976,4.71998 -1.33868,1.34996 -2.93123,2.42091 -4.685642,3.15099 -1.751635,0.72835 -3.629853,1.10253 -5.526502,1.101 h -0.892788 c -1.896648,0.001 -3.774866,-0.37265 -5.526501,-1.101 -1.753163,-0.7324 -3.345285,-1.80306 -4.685642,-3.15099 -1.341387,-1.3535 -2.404998,-2.95702 -3.130751,-4.71998 -0.725692,-1.7663 -1.098234,-3.65802 -1.096513,-5.56798 M 101.74404,42.276923 V 29.996969 C 101.02685,27.68217 99.5916,25.656491 97.646601,24.213991 95.70701,22.777907 93.358905,22.001973 90.946692,22 c -2.412439,5.64e-4 -4.760975,0.776639 -6.699909,2.213991 -1.944448,1.442392 -3.379331,3.46768 -4.096441,5.781978 v 12.279954 m 33.212008,7.583143 c -6.58777,-3.455131 -14.24359,-5.442151 -22.415658,-5.442151 -24.719456,0 -44.715322,18.139931 -44.715322,40.179846 l -0.437408,41.841849 c -4.997086,4.95574 -9.919628,9.98629 -14.765962,15.08995 v 7.10996 h 119.83738 v -7.10996 c -4.84644,-5.10356 -9.76897,-10.13411 -14.76595,-15.08995 -0.13882,-14.95995 -0.28463,-4.26788 -0.43743,-19.20182"
         id="path1"
         style="display:inline" /><path
         style="fill:none;stroke:#000000;stroke-width:12;stroke-linecap:round;stroke-linejoin:round"
         d="m 135.6724,84.79797 -0.009,-18.706557 -0.0118,-25.364389 h 25.3214"
         id="path3" /><path
         style="fill:none;stroke:#000000;stroke-width:12;stroke-linecap:round;stroke-linejoin:round"
         d="m 136.88284,64.895181 h 19.73467"
         id="path4" /></g></g></svg>

<svg width="192" height="192" viewBox="0 0 192 192" fill="none" xmlns="http://www.w3.org/2000/svg">
<g clip-path="url(#clip0_917_1282)">
<rect width="192" height="192" fill="white"/>
<rect width="192" height="192" fill="white"/>
<path fill-rule="evenodd" clip-rule="evenodd" d="M192 0H0V192H192V0ZM22 16C18.6863 16 16 18.6863 16 22V170C16 173.314 18.6863 176 22 176H170C173.314 176 176 173.314 176 170V22C176 18.6863 173.314 16 170 16H22Z" fill="#888888"/>
<rect x="16.5" y="16.5" width="159" height="159" rx="5.5" stroke="#3B8AFF"/>
<rect x="19.5" y="19.5" width="153" height="153" rx="5.5" stroke="#FF9900"/>
<g clip-path="url(#clip1_917_1282)">
<path d="M105.804 155.459C105.805 157.37 105.433 159.261 104.707 161.027C103.984 162.792 102.92 164.396 101.577 165.747C100.239 167.097 98.646 168.168 96.8916 168.898C95.14 169.627 93.2617 170.001 91.3651 169.999H90.4723C88.5756 170 86.6974 169.627 84.9458 168.898C83.1926 168.166 81.6005 167.095 80.2602 165.747C78.9188 164.394 77.8552 162.79 77.1294 161.027C76.4037 159.261 76.0312 157.369 76.0329 155.459M101.716 42.2769V29.997C100.999 27.6822 99.5636 25.6565 97.6186 24.214C95.679 22.7779 93.3309 22.002 90.9187 22C88.5063 22.0006 86.1577 22.7766 84.2188 24.214C82.2743 25.6564 80.8395 27.6817 80.1223 29.996V42.2759M113.334 49.8591C106.747 46.4039 99.0908 44.4169 90.9187 44.4169C66.1992 44.4169 46.2034 62.5568 46.2034 84.5968L45.766 126.439C40.7689 131.394 35.8463 136.425 31 141.529V148.639H150.837V141.529C145.991 136.425 141.068 131.394 136.071 126.439C135.933 111.479 135.787 122.171 135.634 107.237" stroke="black" stroke-width="12" stroke-linecap="round" stroke-linejoin="round"/>
<path d="M135.644 84.798L135.635 66.0914L135.626 46.227C135.626 45.5049 135.768 44.7897 136.044 44.1225C136.32 43.4552 136.725 42.8488 137.236 42.3381C137.746 41.8273 138.352 41.4222 139.02 41.1457C139.687 40.8693 140.402 40.727 141.124 40.727H160.945" stroke="black" stroke-width="12" stroke-linecap="round" stroke-linejoin="round"/>
<path d="M136.855 64.8952H156.59" stroke="black" stroke-width="12" stroke-linecap="round" stroke-linejoin="round"/>
</g>
</g>
<defs>
<clipPath id="clip0_917_1282">
<rect width="192" height="192" fill="white"/>
</clipPath>
<clipPath id="clip1_917_1282">
<rect width="141.945" height="159.999" fill="white" transform="translate(25 16)"/>
</clipPath>
</defs>
</svg>
